X:1
T:[ID 2-36]
T:[ID 2-36]
T:Bezeichnung standardisiert: Menuett Men\"uet 2.
T:Urheber unbekannt Datum in der hier transkribierten schriftlichen Quelle: 1767
C:Urheber unbekannt
C:Datum in der hier transkribierten schriftlichen Quelle: 1767
L:1/8
M:3/4
K:C
V:1 treble 
V:1
 ec A2 (3def | e2 c2 f2 | e2 cdef | g2 g4 | EC D2 D2 | CE TE4 | Fd D2 D2 | CE TE4 | G2 c2 D2 | %9
{D} E6 :: c2 Gc e2 | B2 GB e2 | A2 G2 CB, | A,B,CA, G,2 |6 x | x6 | x6 | x6 | D2 CB,A,B, | B,6 | %20
 E4 D2 | C2 _B,C A,2 | B4 A2 | DEFD B,2 | EC D2 D2 | CE TE4 | Fd D2 D2 | CE TE4 | cedecD | E6 :| %30

